X:85
T:Caller Herring. CJF.085
R:Air
S:C.J.Fox MS, 1829/33, Beverley,E.Yorks.
B:Kidson Coll.Mitchell Lib.M1805
O:England
A:East Yorkshire
Z:vmp.P J Headford 2000 & 2008
M:C|
L:1/8
Q:2/4=60
K:D
“pia”A|d2d>dc2dz/e/|fB e>d cABc|d2d>dc2dz/e/|\
fdecd3:|!
|:d’|.c’.b.a.g .f.e.d.d’|.c’.b.a.g .f.e.d.d’|\
.c’.b.a.g f(fga)|b>B e>d cABc|!
d2d>d(c2d)z/e/|fB e>d cABc|d2d>dc2dz/e/|f>g e>dd2:|!
|:a|d’2d’>d’c’2d’z/a/|(bagf) efg^g|\
a2a>a^g2az/b/|c’>d’b>a a3f|!
g2g>gf2gz/a/|bB e>d cABc|d2d>d(c2d)(b/g/)|f>g e>dd2:|

